packages/icons/web/hiper_large.svg

<svg width="24" height="24" viewBox="0 0 24 24" fill="none" xmlns="http://www.w3.org/2000/svg">
<path d="M4.35148 6.54068L15.5666 3.86587C17.2036 3.47549 18.8615 4.49955 19.2506 6.14163L21.9172 17.3916C22.1205 18.2492 21.939 19.1124 21.4861 19.7971H4.34899L2.08278 10.2362C1.6936 8.59413 2.71449 6.93115 4.35148 6.54068Z" fill="#E46C2A"/>
<path d="M4.32715 11.1398V15.9469H5.4149V13.9355H7.19924V15.9469H8.27963V11.1398H7.19924V12.9871H5.4149V11.1398H4.32715Z" fill="#FFFFFE"/>
<path d="M17.6386 14.5489C17.6528 14.4705 17.6741 14.3065 17.6741 14.121C17.6741 13.2581 17.2475 12.3809 16.1242 12.3809C14.9156 12.3809 14.3682 13.3579 14.3682 14.2422C14.3682 15.3334 15.0436 16.0181 16.2237 16.0181C16.693 16.0181 17.1267 15.9467 17.4821 15.8041L17.3399 15.0695C17.0485 15.1623 16.7499 15.2122 16.3801 15.2122C15.8754 15.2122 15.4346 14.9982 15.399 14.5489H17.6386ZM15.3919 13.8072C15.4204 13.5148 15.6052 13.1012 16.0602 13.1012C16.5579 13.1012 16.6717 13.5434 16.6717 13.8072H15.3919ZM18.0204 15.9467H19.101V14.1781C19.101 14.0925 19.1082 14.0069 19.1224 13.9356C19.1935 13.6004 19.4636 13.3864 19.8618 13.3864C19.9827 13.3864 20.0751 13.4007 20.1532 13.415V12.3951C20.0751 12.3809 20.0253 12.3809 19.9257 12.3809C19.5916 12.3809 19.1651 12.5948 18.9873 13.1012H18.9589L18.9233 12.4593H17.992C18.0062 12.7588 18.0204 13.0941 18.0204 13.6076V15.9467Z" fill="#FFFFFE"/>
<path d="M9.37979 10.9465C9.6866 10.9465 9.93536 11.1961 9.93536 11.5038C9.93536 11.8115 9.6866 12.061 9.37979 12.061C9.07299 12.061 8.82422 11.8115 8.82422 11.5038C8.82422 11.1961 9.07299 10.9465 9.37979 10.9465Z" fill="#FFE80F"/>
<path d="M11.662 15.1343H12.2045C12.749 15.1343 12.9954 14.7845 12.9954 14.4197C12.9954 14.0549 12.9692 13.2297 12.296 13.2297C11.5228 13.2297 11.6482 14.2539 11.6515 14.7902C11.6522 14.9048 11.659 15.0195 11.662 15.1343ZM8.82422 12.4544H9.93536V14.4197C9.93536 14.7842 10.1371 15.1338 10.5829 15.1343C10.5861 14.2495 10.5826 13.3386 10.553 12.4544H11.4812C11.5016 12.6247 11.52 12.7955 11.5365 12.9667C11.9751 12.0869 13.3571 12.2806 13.8221 13.0232C14.3026 13.7903 14.466 15.9865 12.2045 15.9865H11.6779C11.683 16.4325 11.6838 16.8791 11.6838 17.3258H10.5727C10.5727 16.8972 10.5756 16.448 10.5785 15.9865C9.37763 15.9823 8.82422 15.2173 8.82422 14.4197V12.4544Z" fill="#FFFFFE"/>
</svg>

<svg width="24" height="24" fill="none" xmlns="http://www.w3.org/2000/svg">
    <path d="M4.351 6.54l11.216-2.674a3.068 3.068 0 013.684 2.276l2.666 11.25a3.07 3.07 0 01-.43 2.405H4.348l-2.266-9.56A3.078 3.078 0 014.35 6.54z" fill="#E46C2A"/>
    <path d="M4.327 11.14v4.807h1.088v-2.011h1.784v2.01h1.08V11.14H7.2v1.847H5.415V11.14H4.327zm13.312 3.409c.014-.079.035-.242.035-.428 0-.863-.427-1.74-1.55-1.74-1.208 0-1.756.977-1.756 1.861 0 1.091.676 1.776 1.856 1.776.469 0 .903-.071 1.258-.214l-.142-.735a3.05 3.05 0 01-.96.143c-.505 0-.945-.214-.981-.663h2.24zm-2.247-.742c.028-.292.213-.706.668-.706.498 0 .612.442.612.706h-1.28zm2.628 2.14h1.081v-1.769c0-.086.007-.171.021-.242.072-.336.342-.55.74-.55.12 0 .213.015.291.029v-1.02c-.078-.014-.128-.014-.227-.014-.334 0-.76.214-.939.72h-.028l-.036-.642h-.931c.014.3.028.635.028 1.149v2.339z" fill="#FFFFFE"/>
    <path d="M9.38 10.947a.557.557 0 11-.002 1.113.557.557 0 01.002-1.114z" fill="#FFE80F"/>
    <path d="M11.662 15.134h.542c.545 0 .791-.35.791-.714 0-.365-.026-1.19-.699-1.19-.773 0-.648 1.024-.644 1.56 0 .115.007.23.01.344zm-2.838-2.68h1.111v1.966c0 .364.202.714.648.714.003-.885 0-1.795-.03-2.68h.928c.02.17.039.341.056.513.438-.88 1.82-.686 2.285.056.48.767.644 2.963-1.617 2.963h-.527c.005.447.006.893.006 1.34h-1.111c0-.429.003-.878.005-1.34-1.2-.004-1.754-.769-1.754-1.566v-1.966z" fill="#FFFFFE"/>
</svg>
